X:189
M:6/4
L:1/8
K:G
e2c2e2 d2B2d2|A2F2A2 "tr"c4A2::g3fg2 d2e2f2|g3fg2 d3cB2|g3fg2 d2e2f2|g3fg2 d3cB2|
(cd)e2c2 (de)f2d2|A2F2A2 "tr"c4A2::B2G2G2 A2D2D2|B2G2G2 c2B2A2|B2G2G2 A2D2D2|

